X:101
M:6/8
L:1/8
K:Eb
(EG)B (eB)G|(cA)F {E}D2C|(B,D)F (DF)A|(GB)D E2 (3B/c/d/|e/B/ "tr"B2 f/B/ "tr"B2|(ge)c {B}=A2G|
edc {c}=B3|(ge)c a3|(fd)B g3|(ag)f (ed)c|G2 (3F/E/D/ C2 (3B/c/d/|{d}e3 BGE|cAF {E}D3|
f2g aga|cfe {e}d3|bgd eBc|afc d=AB|eBG cAF|BGD {D}E3:|

